X:1
T:Aupr\`es de ma blonde
T:Le Prisonnier Hollande
C:Trad.
O:France, XVIIIe si\`ecle
N:Attribu\'e \`a lieutenant Andr\'e Joubert du Collet
S:Hand-written transcription by Staf Cogniau
Z:Bert Van Vreckem <bert.vanvreckem@gmail.com>, 2018-06-10
M:2/4
L:1/8
K:F
A/|"F"A> B A> G | F2 F> F | c> c "Bb"d> d | "F"c2c3/2 :| 
w:Dans les jar-dins d'~mon pè-re Les li-las sont fleu-ris_
c/ | "Bb"d> d d> A | "C"B2 B> B | "C7"c> c c> G | "F"A4 |
w:Tous les oi-seaux du mon-de vien'-nent y fair' leurs nids
|: "F"F2 (3G A B | A2 c2 |1 "Bb"G> B A> G | "C7"F> D C2 :|2"Bb" G> B "C7"A> G | ("F"F2 !fermata!F) |]
w:Au-pr\`es de ma blon-de Qu'il fait bon, fait bon, fait bon. Qu'il fait bon dor-mir!_
%
W:1. Dans les jardins d' mon père
W:   Les lilas sont fleuris (2x)
W:   Tous les oiseaux du monde
W:   Viennent y fair' leurs nids
W: 
W:  (Refrain)
W:   Auprès de ma blonde
W:   Qu'il fait bon, fait bon, fait bon.
W:   Auprès de ma blonde
W:   Qu'il fait bon dormir !
W:
W:2. La caille, la tourterelle
W:   Et la jolie perdrix. (2x)
W:   Et la blanche colombe
W:   Qui chante jour et nuit
W:   (Refrain)
W:
W:3. Elle chante pour les filles
W:   Qui n'ont pas de mari (2x)
W:   C'est pas pour moi qu'elle chante
W:   Car j'en ai t-un joli
W:   (Refrain)
W:
W:4. Dites-nous donc la belle
W:   Où donc est votre ami? (2x)
W:   Il est dans la Hollande
W:   Les Hollandais l'ont pris
W:   (Refrain)
W:
W:5. Il est dans la Hollande
W:   Les Hollandais l'ont pris. (2x)
W:   \u00ab Que donneriez-vous, belle
W:   Pour voir votre ami ? \u00bb
W:   (Refrain)
W:
W:6. Je donnerais Versailles
W:   Paris et Saint-Denis (2x)
W:   Les tours de Notre Dame
W:   Et l'clocher d'mon pays
W:   (Refrain) 